img/00top/中.svg

<svg width="165" height="187" viewBox="0 0 165 187" fill="none" xmlns="http://www.w3.org/2000/svg">
<path d="M140 39C140.667 38.3333 141.6 37.2667 142.8 35.8C144 34.3333 145 33.6 145.8 33.6C146.6 33.6 148.6 34.7333 151.8 37C155 39.2667 158 41.6667 160.8 44.2C163.6 46.7333 165 48.4667 165 49.4C163.533 51.4 160.867 52.8 157 53.6V76C157.4 94.9333 157.867 109.533 158.4 119.8C157.6 121 155.267 122.333 151.4 123.8C147.533 125.133 144.067 125.8 141 125.8C138.333 125.8 137 124.467 137 121.8C137 121.533 137.267 119.2 137.8 114.8V109.2H89.2V132.8C89.4667 149.067 90 164.4 90.8 178.8C89.8667 180.533 87.6 182.333 84 184.2C80.5333 186.067 77.0667 187 73.6 187C71.8667 187 70.4667 186.6 69.4 185.8C68.4667 185 68 184.067 68 183C68.5333 175.8 68.9333 168.733 69.2 161.8C69.6 154.867 69.8667 146 70 135.2V109.2H21.4V113.6C21.5333 115.333 21.6 116.867 21.6 118.2C21.7333 119.533 21.8667 120.533 22 121.2C21.7333 122.667 19.8 124.267 16.2 126C12.7333 127.733 9.2 128.6 5.6 128.6C4.13333 128.6 3 128.2 2.2 127.4C1.4 126.6 1 125.667 1 124.6C1.8 114.2 2.33333 103.733 2.6 93.2V75.4C2.6 58.6 1.73333 44.9333 2.98023e-07 34.4L23.2 44.4H70V41C70 24.2 69.1333 10.5333 67.4 -4.76837e-06C77.6667 2.4 84.7333 4.33333 88.6 5.79999C92.4667 7.13332 94.4 8.33332 94.4 9.39999C94.4 9.93333 93.8667 10.5333 92.8 11.2L89.2 13.6V44.4H135.8L140 39ZM21.4 50.2V103.4H70V50.2H21.4ZM89.2 50.2V103.4H137.8V50.2H89.2Z" fill="black"/>
</svg>

<svg width="165" height="187" fill="none" xmlns="http://www.w3.org/2000/svg"><path d="M140 39c.667-.667 1.6-1.733 2.8-3.2 1.2-1.467 2.2-2.2 3-2.2.8 0 2.8 1.133 6 3.4s6.2 4.667 9 7.2c2.8 2.533 4.2 4.267 4.2 5.2-1.467 2-4.133 3.4-8 4.2V76c.4 18.933.867 33.533 1.4 43.8-.8 1.2-3.133 2.533-7 4-3.867 1.333-7.333 2-10.4 2-2.667 0-4-1.333-4-4 0-.267.267-2.6.8-7v-5.6H89.2v23.6c.267 16.267.8 31.6 1.6 46-.933 1.733-3.2 3.533-6.8 5.4-3.467 1.867-6.933 2.8-10.4 2.8-1.733 0-3.133-.4-4.2-1.2-.933-.8-1.4-1.733-1.4-2.8.533-7.2.933-14.267 1.2-21.2.4-6.933.667-15.8.8-26.6v-26H21.4v4.4c.133 1.733.2 3.267.2 4.6.133 1.333.267 2.333.4 3-.267 1.467-2.2 3.067-5.8 4.8-3.467 1.733-7 2.6-10.6 2.6-1.467 0-2.6-.4-3.4-1.2-.8-.8-1.2-1.733-1.2-2.8.8-10.4 1.333-20.867 1.6-31.4V75.4c0-16.8-.867-30.467-2.6-41l23.2 10H70V41c0-16.8-.867-30.467-2.6-41 10.267 2.4 17.333 4.333 21.2 5.8 3.867 1.333 5.8 2.533 5.8 3.6 0 .533-.533 1.133-1.6 1.8l-3.6 2.4v30.8h46.6L140 39ZM21.4 50.2v53.2H70V50.2H21.4Zm67.8 0v53.2h48.6V50.2H89.2Z" fill="#000"/></svg>
